src/assets/brand/wordmark.svg

<svg width="536" height="59" viewBox="0 0 536 59" fill="none" xmlns="http://www.w3.org/2000/svg">
<path d="M42.3498 0.489738V57.5274H36.6379V30.8445H5.71192V57.5274H0V0.489738H5.71192V26.1118H36.6379V0.489738H42.3498Z" fill="black"/>
<path d="M86.7976 43.9819L73.8234 8.40483L60.8492 43.9819L55.8716 57.5274H49.8333L70.641 1.22413H77.0873L97.8135 57.5274H91.7751L86.7976 43.9819Z" fill="black"/>
<path d="M111.061 52.8762H131.542V57.5274H105.349V0.489738H111.061V52.8762Z" fill="black"/>
<path d="M143.773 52.8762H164.255V57.5274H138.061V0.489738H143.773V52.8762Z" fill="black"/>
<path d="M176.486 0.489738V57.5274H170.774V0.489738H176.486Z" fill="black"/>
<path d="M230.792 57.5274H225.08L193.501 9.54722V57.5274H187.789V0.489738H193.501L225.08 48.3883V0.489738H230.792V57.5274Z" fill="black"/>
<path d="M307.294 0V57.5272H291.301V25.7852L280.448 57.5272H267.066L256.132 25.5404V57.5272H240.138V0H259.477L273.92 37.3723L288.037 0H307.294Z" fill="#FF3030"/>
<path d="M330.76 12.811V22.1949H349.119V34.3531H330.76V44.7162H351.567V57.5272H314.766V0H351.567V12.811H330.76Z" fill="#FF3030"/>
<path d="M380.604 0C386.643 0 391.919 1.22398 396.434 3.67195C401.004 6.06552 404.513 9.43827 406.961 13.7902C409.409 18.1422 410.633 23.1197 410.633 28.7228C410.633 34.2715 409.382 39.2219 406.879 43.5738C404.431 47.9257 400.922 51.3529 396.353 53.8553C391.838 56.3032 386.588 57.5272 380.604 57.5272H357.838V0H380.604ZM379.38 43.4106C384.059 43.4106 387.731 42.1322 390.396 39.5755C393.062 37.0187 394.395 33.4011 394.395 28.7228C394.395 23.9901 393.062 20.3453 390.396 17.7886C387.731 15.1774 384.059 13.8718 379.38 13.8718H373.832V43.4106H379.38Z" fill="#FF3030"/>
<path d="M432.203 0V57.5272H416.21V0H432.203Z" fill="#FF3030"/>
<path d="M474.073 44.1434L455.673 52.1433L452.572 57.5272H435.763L456.734 0H475.175L496.064 57.5272H479.173L474.073 44.1434ZM471.465 30.5276L465.873 17.299L457.465 38.5275L471.465 30.5276Z" fill="#FF3030"/>
<path d="M527.422 58.18C524.974 58.18 522.962 57.4728 521.384 56.0584C519.861 54.5896 519.099 52.7945 519.099 50.6729C519.099 48.4969 519.861 46.6746 521.384 45.2058C522.962 43.737 524.974 43.0026 527.422 43.0026C529.816 43.0026 531.774 43.737 533.298 45.2058C534.875 46.6746 535.664 48.4969 535.664 50.6729C535.664 52.7945 534.875 54.5896 533.298 56.0584C531.774 57.4728 529.816 58.18 527.422 58.18Z" fill="#FF3030"/>
</svg>

<svg xmlns="http://www.w3.org/2000/svg" fill="none" viewBox="0 0 536 59"><path fill="#000" d="M42.35.49v57.037h-5.712V30.844H5.712v26.683H0V.49h5.712v25.622h30.926V.49h5.712ZM86.798 43.982 73.823 8.405 60.85 43.982l-4.977 13.545h-6.039L70.641 1.224h6.446l20.727 56.303h-6.039l-4.977-13.545ZM111.061 52.876h20.481v4.651h-26.193V.49h5.712v52.386ZM143.773 52.876h20.482v4.651h-26.194V.49h5.712v52.386ZM176.486.49v57.037h-5.712V.49h5.712ZM230.792 57.527h-5.712l-31.579-47.98v47.98h-5.712V.49h5.712l31.579 47.898V.49h5.712v57.037Z"/><path fill="#FF3030" d="M307.294 0v57.527h-15.993V25.785l-10.853 31.742h-13.382L256.132 25.54v31.987h-15.994V0h19.339l14.443 37.372L288.037 0h19.257ZM330.76 12.811v9.384h18.359v12.158H330.76v10.363h20.807v12.811h-36.801V0h36.801v12.811H330.76ZM380.604 0c6.039 0 11.315 1.224 15.83 3.672 4.57 2.394 8.079 5.766 10.527 10.118 2.448 4.352 3.672 9.33 3.672 14.933 0 5.549-1.251 10.499-3.754 14.85-2.448 4.353-5.957 7.78-10.526 10.282-4.515 2.448-9.765 3.672-15.749 3.672h-22.766V0h22.766Zm-1.224 43.41c4.679 0 8.351-1.278 11.016-3.834 2.666-2.557 3.999-6.175 3.999-10.853 0-4.733-1.333-8.378-3.999-10.934-2.665-2.612-6.337-3.917-11.016-3.917h-5.548V43.41h5.548ZM432.203 0v57.527H416.21V0h15.993ZM474.073 44.143l-18.4 8-3.101 5.384h-16.809L456.734 0h18.441l20.889 57.527h-16.891l-5.1-13.384Zm-2.608-13.615-5.592-13.229-8.408 21.229 14-8ZM527.422 58.18c-2.448 0-4.46-.707-6.038-2.122-1.523-1.468-2.285-3.264-2.285-5.385 0-2.176.762-3.998 2.285-5.467 1.578-1.469 3.59-2.203 6.038-2.203 2.394 0 4.352.734 5.876 2.203 1.577 1.469 2.366 3.29 2.366 5.467 0 2.121-.789 3.917-2.366 5.385-1.524 1.415-3.482 2.122-5.876 2.122Z"/></svg>
